X:2009
T:Fleur de Mandragore
O:england
M:4/4
L:1/8
C:Michel Bordeleau
S:Lúnasa: Lúnasa
R:Reel
K:A
E2AE GABc | A^de=d cAAF | E2AE GAB2 | ~B3d cAAF |
E2AE GABc | A^de=d cAAF | E2AE GAB2 |1 ~B3d cAAF :|2 M:6/4 ~B3d cAAB AB
ce |
M:4/4 L:1/8:~a3a a2ga | bAaA gAeA | dfed cABc | defa agfe |
~a3a a2ga | bAaA gAeA | dfed cABc | dcBc BAA2 :|


